svg/300/sharp/directions_bus-fill.svg

<svg xmlns="http://www.w3.org/2000/svg" width="48" height="48" viewBox="0 -960 960 960"><path d="M302.385-140.001H242.54v-101Q215.848-252 197.925-282.21q-17.924-30.21-17.924-66.098V-733q0-65.88 71.877-96.439 71.876-30.56 228.725-30.56 157.166 0 228.281 30.144 71.115 30.144 71.115 96.855v384.692q0 35.888-17.924 66.098-17.923 30.21-44.615 41.209v101h-59.845v-81.616h-355.23v81.616Zm-77-378.69h509.23v-188.002h-509.23v188.002Zm104.679 196.69q20.226 0 34.235-14.158 14.008-14.158 14.008-34.384t-14.158-34.495q-14.158-14.269-34.384-14.269t-34.495 14.418q-14.269 14.418-14.269 34.644t14.418 34.235q14.419 14.009 34.645 14.009Zm300.171 0q20.226 0 34.495-14.158 14.269-14.158 14.269-34.384t-14.418-34.495q-14.419-14.269-34.645-14.269-20.226 0-34.235 14.418-14.008 14.418-14.008 34.644t14.158 34.235q14.158 14.009 34.384 14.009Z"/></svg>

<svg xmlns="http://www.w3.org/2000/svg" width="48" height="48" viewBox="0 -960 960 960"><path d="M302.38-140h-59.84v-101q-26.69-11-44.62-41.21Q180-312.42 180-348.31V-733q0-65.88 71.88-96.44Q323.75-860 480.6-860q157.17 0 228.28 30.15Q780-799.71 780-733v384.69q0 35.89-17.92 66.1Q744.15-252 717.46-241v101h-59.84v-81.62H302.38V-140Zm-76.99-378.69h509.22v-188H225.39v188ZM330.06-322q20.23 0 34.24-14.16 14.01-14.16 14.01-34.38 0-20.23-14.16-34.5t-34.39-14.27q-20.22 0-34.49 14.42Q281-390.47 281-370.24q0 20.22 14.42 34.23Q309.84-322 330.06-322Zm300.18 0q20.22 0 34.49-14.16Q679-350.32 679-370.54q0-20.23-14.42-34.5t-34.64-14.27q-20.23 0-34.24 14.42-14.01 14.42-14.01 34.65 0 20.22 14.16 34.23Q610.01-322 630.24-322Z"/></svg>
